X: 1
T: Irish Girl, The
M: 6/8
L: 1/8
R: jig
K: Amaj
FE2 FAB|(3ccc c cBA  |(3cccccBA | BAc  BAF |
EEF ABc|  dd d d ef  | edc  BAE | F3   A3 :|
cee ecA|  df f f ga  | cee  ecA | dcd  B2B |
cee ecA|  df f f ga  | edc  BAE | F3   A3 :|
